Sources/FrostedUI/Resources/Icons.xcassets/megaphone24.imageset/megaphone-24.svg

<svg width="24" height="24" viewBox="0 0 24 24" fill="none" xmlns="http://www.w3.org/2000/svg" data-fui-icon="true">
  <path
    d="M20 1C21.3807 1 22.5 2.11929 22.5 3.5V20.5C22.5 21.8807 21.3807 23 20 23C18.6193 23 17.5 21.8807 17.5 20.5V20.2666L13.5 18.7471V20.5C13.5 21.8807 12.3807 23 11 23C9.61929 23 8.5 21.8807 8.5 20.5V16.8467L6.43359 16.0615C6.17852 17.1715 5.1874 18 4 18C2.61929 18 1.5 16.8807 1.5 15.5V8.5C1.5 7.11929 2.61929 6 4 6C5.18707 6 6.17818 6.82798 6.43359 7.9375L17.5 3.73242V3.5C17.5 2.11929 18.6193 1 20 1ZM10 20.5C10 21.0523 10.4477 21.5 11 21.5C11.5523 21.5 12 21.0523 12 20.5V18.1768L10 17.417V20.5ZM20 2.5C19.4477 2.5 19 2.94772 19 3.5V20.5C19 21.0523 19.4477 21.5 20 21.5C20.5523 21.5 21 21.0523 21 20.5V3.5C21 2.94772 20.5523 2.5 20 2.5ZM6.5 9.5166V14.4824L17.5 18.6621V5.33691L6.5 9.5166ZM4 7.5C3.44772 7.5 3 7.94772 3 8.5V15.5C3 16.0523 3.44772 16.5 4 16.5C4.55228 16.5 5 16.0523 5 15.5V8.5C5 7.94772 4.55228 7.5 4 7.5Z"
    fill="currentColor"
  />
</svg>

<svg xmlns="http://www.w3.org/2000/svg" width="24" height="24" fill="none" data-fui-icon="true" viewBox="0 0 24 24"><path fill="currentColor" d="M20 1a2.5 2.5 0 0 1 2.5 2.5v17a2.5 2.5 0 0 1-5 0v-.233l-4-1.52V20.5a2.5 2.5 0 0 1-5 0v-3.653l-2.066-.786A2.498 2.498 0 0 1 1.5 15.5v-7a2.5 2.5 0 0 1 4.934-.562L17.5 3.731V3.5A2.5 2.5 0 0 1 20 1M10 20.5a1 1 0 1 0 2 0v-2.323l-2-.76zm10-18a1 1 0 0 0-1 1v17a1 1 0 1 0 2 0v-17a1 1 0 0 0-1-1M6.5 9.517v4.965l11 4.18V5.337zM4 7.5a1 1 0 0 0-1 1v7a1 1 0 1 0 2 0v-7a1 1 0 0 0-1-1"/></svg>
